symbols/web/hd/materialsymbolsoutlined/hd_wght100gradN25fill1_40px.svg

<svg xmlns="http://www.w3.org/2000/svg" height="40" width="40"><path d="M11.375 24.333h1.042v-3.416h4.875v3.416h1.041v-8.666h-1.041v4.208h-4.875v-4.208h-1.042Zm10.292 0h5q.791 0 1.375-.583.583-.583.583-1.375v-4.75q0-.792-.583-1.375-.584-.583-1.375-.583h-5Zm1.041-1.041v-6.584h4.209q.25 0 .458.209.208.208.208.458v5.25q0 .25-.208.458-.208.209-.458.209ZM7.875 31.125q-.958 0-1.625-.687-.667-.688-.667-1.605V11.167q0-.917.667-1.605.667-.687 1.625-.687h24.25q.958 0 1.625.687.667.688.667 1.605v17.666q0 .917-.667 1.605-.667.687-1.625.687Z"/></svg>

<svg xmlns="http://www.w3.org/2000/svg" height="40" width="40"><path d="M11.375 24.333H12.417V20.917H17.292V24.333H18.333V15.667H17.292V19.875H12.417V15.667H11.375ZM21.667 24.333H26.667Q27.458 24.333 28.042 23.75Q28.625 23.167 28.625 22.375V17.625Q28.625 16.833 28.042 16.25Q27.458 15.667 26.667 15.667H21.667ZM22.708 23.292V16.708H26.917Q27.167 16.708 27.375 16.917Q27.583 17.125 27.583 17.375V22.625Q27.583 22.875 27.375 23.083Q27.167 23.292 26.917 23.292ZM7.875 31.125Q6.917 31.125 6.25 30.438Q5.583 29.75 5.583 28.833V11.167Q5.583 10.25 6.25 9.562Q6.917 8.875 7.875 8.875H32.125Q33.083 8.875 33.75 9.562Q34.417 10.25 34.417 11.167V28.833Q34.417 29.75 33.75 30.438Q33.083 31.125 32.125 31.125Z"/></svg>
